X:1
T:The Resurrection Day
T:The Resurrection Day
T:James Henry Fillmore, Sr.
T:Palmer Hartsough, 1894
T:Public Domain Courtesy of the Cyber Hymnal™
C:James Henry Fillmore, Sr.
Z:Public Domain
Z:Courtesy of the Cyber Hymnal™
%%score ( 1 2 ) ( 3 4 )
L:1/8
Q:1/4=95
M:4/4
K:Ab
V:1 treble 
V:2 treble 
V:3 bass 
V:4 bass 
V:1
 [CE] | [CE] z [CF][CE] z [Cc] | (AG)[CF][CE] z [CE] | [DE] z [DF][DE] z [Dd] | (BG)[DF][DE] z E | %5
w: 1.~As|broke the long and|hea- * vy night, While|tremb- ling guards fell|with * af- fright, An|
w: 2.~And|Christ a- rose and|left * the tomb, The|grave He robbed of|all * its gloom, And|
w: 3.~And|so our trib- utes|glad * we bring, And|sweet- est car- ols|do * we sing, In|
 E2 [Ee][Ec] z [EA] | [FA]2 [Ff][Fd] z [FB] | (AG)[EA] [EB]2 [E=B] | [Ec]3- [Ec]2 [CE] | %9
w: an- gel fair, in|gar- ments white, Came|down * where Je- sus|lay; * An|
w: earth put on her|robes of bloom, To|greet * a- gain her|Lord; * And|
w: praise of Christ, our|vic- tor king, This|res- * ur- rect- ion|day; * In|
 [CE]2 [Cc][CA] z [CG] | [DF]2 [Fd][FB] z [FA] | (Gf)[Ge] (d c)[EB] | [EA]3- [EA]2 [Ae] | %13
w: an- gel fair, in|gar- ments white, And|rolled * the rock * a-|way, * And|
w: earth put on her|robes of bloom, To|greet * a- gain * her|Lord; * To|
w: praise of Christ, our|vic- tor king, This|res- * ur- rect- * ion|day, * This|
 [Ae]2 [Ae] [Ae]2 [Ae] | [Ge]3- [Ge]2 [DG] | [DG]2 [DG] [DG]2 [DG] | [CA]3- [CA]2 |] %17
w: rolled the rock a-|way, * And|rolled the rock a-|way. *|
w: greet a- gain her|Lord, * To|greet a- gain her|Lord. *|
w: res- ur- rect- ion|day, * This|res- ur- rect- ion|day. *|
V:2
 x | x6 | C2 x4 | x6 | D2 x2 E x | E2 x4 | x6 | E2 x4 | x6 | x6 | x6 | E2 G2 x2 | x6 | x6 | x6 | %15
 x6 | x5 |] %17
V:3
 [A,,A,] | [A,,A,] z [A,,A,][A,,A,] z [A,,A,] | [A,,A,]2 [A,,A,][A,,A,] z [A,,A,] | %3
 [B,,G,] z [B,,G,][B,,G,] z [B,,G,] | [B,,G,]2 [B,,G,][B,,G,] z [B,,G,] | %5
 [C,A,]2 [C,A,][C,A,] z [C,A,] | [D,A,]2 [D,A,][D,A,] z [D,D] | (CB,)[E,C] [E,D]2 [E,G,] | %8
 [A,,A,]3- [A,,A,]2 [A,,A,] | [A,,A,]2 [A,,A,][A,,A,] z [A,,A,] | [D,A,]2 [D,A,][D,A,] z [=D,B,] | %11
 [E,B,]2 [E,B,] [E,B,]2 [E,D] | [A,C]3- [A,C]2 [A,C] | [A,C]2 [A,C] [A,C]2 [A,C] | %14
 [E,B,]3- [E,B,]2 [E,B,] | [E,B,]2 [E,B,] [E,B,]2 [E,B,] | [A,,A,]3- [A,,A,]2 |] %17
V:4
 x | x6 | x6 | x6 | x6 | x6 | x6 | E,2 x4 | x6 | x6 | x6 | x6 | x6 | x6 | x6 | x6 | x5 |] %17

